X: 26974
T: Miss Douglas
R: strathspey
M: 4/4
K: Gmajor
B/c/|"G"d2 B>c d>G B<G|"Am"E<c A>G "D7"F<D DB/c/|"G"d2 B>g "Em" d>G B<G|"Am"E<A"D7"D>F "G"G2G:|
B/c/|"G"d<g g>f "Am"e<a a>g|"D7"f>de>f "G"g>a gf/e/|"G"d<g g>f "Am"e<a a>g|"D7"f>de>f "G"gg g>a|
"G"b>ga>f "Em" g>ef>d|"C"e>cd>B "D7"A>B c<e|"G"d2 B>g d>G B<G|"C"E<c "D7"B/A/G/F/ "G"G2G||

